X: 40806
T: Trade Wind
R: hornpipe
M: 4/4
K: Dmajor
|:F>G|A>^GA>B A>=GF>E|F2 D2 D2 E>F|G>FG>A B>AG>F|E2 C2 A,2 A,>^A,|
B,2 B,2 C2 E2|F>EF>G F2 D>F|A>^GA>B A>=GF>E|F2 D2 D2:|
|:A2|d2 d>c d>AF>A|d2 d>A F2 F2|G>FG>A G>E C2|G>FG>A G2 A,>^A,|
B,2 B,2 C2 E2|F>EF>G F2 D>F|A>^GA>B A>=GF>E|F2 D2 D2:|

